X:1
T:Title
%%score [ 1 2 3 4 ]
L:1/8
Q:1/4=120
M:6/8
K:F
V:1 treble nm="S."
V:2 treble nm="A."
V:3 treble-8 nm="T."
V:4 bass nm="B."
V:1
"^Allegretto vivace""^Shall we go dance?" z6 | z6 |!mf! c2 f (dc)B | c2 f d3 | c2 A B2 G | %5
w: ||Ne- ver pipe * could|e- ver play|bet- ter shep- herd's|
"^C.V. Stanford (1852-1924)" (AG)F c3 |[M:6/8]!f! .F>.F.A .G.F.E | F3 F3 |!f! FFG A2 B | %9
w: roun * de- lay,|fa la la la la la|la la!|Shall we go sing the|
 c2 B!>(! (c3 | (c6)!>)! | c6) |!mf! c3 c3 | c3 c3 | ((A3 A)G)F | c6 |!f! .F>.F.A .G.F.E | F3 F3 | %18
w: song, the song?|||fair maids,|hold hands|all * * a-|long,|fa la la la la la|la la!|
 z6 | z6 |!p! e2 A A2 A | e2 c A3 | f2 e (dc)=B | (c=B)A e3 |!p! .A>.A.c .=B.A.^G | A3 A3 | %26
w: ||Ne- ver thought came|bet- ter too,|bet- ter deed * could|e * ver do.|fa la la la la la|la la!|
!pp! A>A=B c2 d | ezd (e3 | (e6) | e6) |!pp! f3 e3 | d3 c3 | ((c3 c)=B)A | e6 | .A>.A.c .=B.A.^G | %35
w: Shall we go learn to|kiss, to kiss?|||com- fort|where true|mean * * ing|is.|fa la la la la la|
 A3 A3 |!f! c2 d e2 f | g2 e c3 |"^cresc." c2 d e2 f | g2 e c3 | z3!p!!<(! (cd)e | %41
w: la la!|Thus at base they|run, they run,|when the sport was|scarce be- gun;|but * I|
 .f!<)! z z!p! A3 | d3 E3 | (F6 | F3) c3 | (F6 | F3) z3 | z3!pp! (c3 | c3) c3 | !fermata!c6 |] %50
w: wak'd, and|all was|done,|* was|done.||all|* was|done.|
V:2
 z6 | z6 |!mf! A2 F (BA)G | A2 F B3 | A2 F G2 C | (FE)D C3 |[M:6/8] .D>!f!.D.F .D.D.C | C3 C3 | %8
w: ||Ne- ver pipe * could|e- ver play|bet- ter shep- herd's|roun * de- lay,|fa la la la la la|la la!|
 F!f!FG A2 B | c2 B!>(! (c3 | (c6)!>)! | c6) |!mf! (c2 A) (B2 G) | (A2 F) (G2 E) | ((F3 F))ED | %15
w: Shall we go sing the|song, the song?|||fair * maids, *|hold * hands *|all * * a-|
 (F3 E3) | .F>!f!.F.F .D.D.C | C3 C3 | z6 | z6 |!mf! E2 A (FE)D | E2 A F3 |!p! A2 A A2 A | %23
w: long, *|fa la la la la la|la la!|||Ne- ver thought * came|bet- ter too,|bet- ter deed could|
 A2 E (^G^FG) | .A>!p!.A.A .F.F.E | E3 E3 | z6 | z6 |!p! =B2 E E2 E | =B2 E (c2 A) | %30
w: e- ver do. * *|fa la la la la la|la la!|||Ne- ver heart could|e- ver miss *|
!pp! (^G2 =B) (B2 A) | (E2 ^G) (A2 C) | (F3 F2) A | (A3 ^G3) | .A>.A.A .F.F.E | E3 E3 | %36
w: com * fort *|where * true *|mean * ing|is. *|fa la la la la la|la la!|
!f! c2 !courtesy!_B G2 F | (EF)G B3 |"^cresc." E2 c (cB)B | B2 B (A2 G) | z3!p!!<(! (cB)G | %41
w: Thus at base they|run, * they run,|when the sport * was|scarce be- gun; *|but * I|
 .F z!<)! z!p! F3 | F3 E3 | F6 |!pp! .F>.F.A .G.F.E | F3 F3 |!ppp! .F>.F.A .G.F.E | F3 (F3 | %48
w: wak'd, and|all was|done,|fa la la la la la|la la,|fa la la la la la|la la|
 F3) F3 | !fermata!F6 |] %50
w: * la|la!|
V:3
!f! FFG A2 B | c2 B!>(! (c3 | (c6)!>)! | (c3) c2)!p! c |!>(! c6 | z6!>)! | %6
w: Shall we go dance the|hay, the hay?||* * the|hay?||
[M:6/8][K:treble-8]!f! .A>.A.c .B.A.G | A3 A3 | z6 | z6 |!mf! c2 f (dc)B | c2 f d3 | f3 (f2 e) | %13
w: fa la la la la la|la la!|||Ne- ver love * did|e- ver wrong,|fair maids, *|
 (f2 c) (d2 B) | (c2 A d2) A | (A3 G3) | .F>!f!.A.c .B.A.G | A3 A3 | z6 | z6 |!p! c2 A (dc)=B | %21
w: hold * hands *|all * * a-|long, *|fa la la la la la|la la!|||Ne- ver thought * came|
 c2 A d3 | d2 c (fe)d | (ed)c (=B2 d) | .c>!p!.c.e .d.c.=B | c3 c3 | z6 | z6 |!mf! =B2 e (cB)A | %29
w: bet- ter too,|bet- ter deed * could|e * ver do. *|fa la la la la la|la la!|||Ne- ver heart * could|
 =B2 e e3 |!pp! d3 c3 | =B3 A3 | (d3 d2) d | (c3 =B3) | .A>.A.e .d.c.=B | c3 c3 | %36
w: e- ver miss|com- fort|where true|mean * ing|is. *|fa la la la la la|la la!|
!f! e2 d !courtesy!_B2 A | (GA)B (cde) |"^cresc." g2 f e2 d | c2 c e3 | z3!<(! (e!p!d)B | %41
w: Thus at base they|run, * they run, * *|when the sport was|scarce be- gun;|but * I|
 .A z!<)! z!p! c3 | B3 B3 | A6 |!pp! .B>.B.B .B.B.B | A3 A3 |!ppp! .B>.B.B .B.B.B | A3 (A3 | %48
w: wak'd, and|all was|done,|fa la la la la la|la la,|fa la la la la la|la la|
 A3) A3 | !fermata!A6 |] %50
w: * la|la!|
V:4
!f! F,F,G, A,2 B, | C2 B,!>(! (C3 | (C6)!>)! | (C3) C2) z | z6 | z6 | %6
w: Shall we go dance the|hay, the hay?|||||
[M:6/8] .D,>!f!.D,.A,, .B,,.B,,.C, | F,3 F,3 | z6 | z6 |!mf! A,2 F, (B,A,)G, | A,2 F, B,3 | %12
w: fa la la la la la|la la!|||Ne- ver love * did|e- ver wrong,|
 (A,2 D) (G,2 C) | (F,2 A,) (B,2 G,) | (F,2 E, D,2) D, | C,6 | .D,>!f!.D,.A,, .B,,.B,,.C, | %17
w: fair * maids, *|hold * hands *|all * * a-|long,|fa la la la la la|
 F,3 F,3 |!p! F,F,G, A,2 B, | C2 B, C3 |"^__""^This edition  Andrew Sims 2000" C3 z3 | z6 | z6 | %23
w: la la!|Shall we go learn to|woo, to woo?||||
 z6 |!p! .F,>.F,.C, .D,.D,.E, | A,,3 A,,3 | z6 | z6 |!p! ^G,2 G, (A,G,)^F, | ^G,2 G, (A,2 C) | %30
w: |fa la la la la la|la la!|||Ne- ver heart * could|e- ver miss *|
!pp! (=B,2 ^G,) A,3 | (^G,2 E,) F,3 | (D,3 D,2) F, | E,6 | .F,>.F,.C, .D,.D,.E, | A,3 A,3 | %36
w: com * fort|where * true|mean * ing|is.|fa la la la la la|la la!|
!f! (C,3 C,2) C, | C,2 C, (E,F,G,) |"^cresc." B,2 A, G,2 F, | E,2 G, B,3 | z3!p!!<(! C,2 C, | %41
w: Thus * at|base they run, * *|when the sport was|scarce be- gun;|but I|
 .D, z!<)! z!p! A,,3 | G,,3 C,3 | (F,3 _E,3) |!pp! .D,>.D,.D, .!courtesy!=E,.F,.G, | F,3 _E,3 | %46
w: wak'd, and|all was|done, *|fa la la la la la|la la,|
!ppp! .D,>.D,.D, .!courtesy!=E,.F,.G, | F,6 | C,6 | !fermata![F,,C,]6 |] %50
w: fa la la la la la|la|la|la!|

